!!!OTL: MYS LIEB WE DU ZUR CHILCHE THUEST GA
!!!ARE: Europa, Mitteleuropa, Schweiz, Bern
!!!SCT: E0584
!!!YEM: Copyright 1995, estate of Helmut Schaffrath.
**kern
*ICvox
*Ivox
*M3/8
*k[f#c#g#]
*A:
=1
{4.a
=2
8cc#
8dd
8ee
=3
8dd
8cc#
8b
=4
8a
8g#
8f#
=5
4.e}
=6
{4.a
=7
8b
8cc#
8dd
=8
8cc#
8dd
8ee
=9
4.b}
=10
{4.a
=11
8cc#
8dd
8ee
=12
8dd
8cc#
8b
=13
8a
8g#
8f#
=14
4.e}
=15
{4.a
=16
8b
8cc#
8dd
=17
8cc#
8dd
8ee
=18
4.a}
==
!!!AGN: Liebes - Lied
!!!ONB: ESAC (Essen Associative Code) Database: ERK1
!!!AMT: simple triple
!!!AIN: vox
!!!EED: Helmut Schaffrath
!!!EEV: 1.0
*-
